tools/download-figma-icons/icons/solid/electric-tower.svg

<svg width="24" height="24" viewBox="0 0 24 24" fill="none" xmlns="http://www.w3.org/2000/svg">
<path fill-rule="evenodd" clip-rule="evenodd" d="M7.73974 22.5L11.6397 18.672L15.5397 22.5H7.73974ZM21.0305 22.5H19.0797L15.998 9.9375H19.1097V10.6875C19.1097 11.1 19.4472 11.4375 19.8597 11.4375C20.2805 11.4375 20.6097 11.1 20.6097 10.6875V9.165C20.6097 9.07575 20.588 8.985 20.558 8.9025C20.5497 8.88825 20.5355 8.8725 20.528 8.85825C20.498 8.7975 20.4605 8.7375 20.408 8.6775C20.3847 8.655 20.3622 8.64075 20.333 8.6175C20.3022 8.595 20.2805 8.565 20.2422 8.5425L15.8922 5.97V4.2975H19.1097V5.0475C19.1097 5.46 19.4472 5.7975 19.8597 5.7975C20.2805 5.7975 20.6097 5.46 20.6097 5.0475V3.525C20.6097 3.435 20.588 3.345 20.558 3.255C20.5497 3.24 20.5355 3.23325 20.528 3.2175C20.498 3.15 20.4605 3.09 20.408 3.0375C20.3847 3.01575 20.3622 2.9925 20.333 2.97C20.3022 2.9475 20.2805 2.9175 20.2422 2.9025L15.5255 0.105C15.503 0.0975 15.4872 0.09 15.4655 0.0825C15.443 0.0675 15.4197 0.06 15.398 0.0525C15.3822 0.04575 15.3672 0.0375 15.3522 0.03H15.338C15.278 0.0075 15.2105 0 15.1422 0H8.14549C8.07724 0 8.00974 0.0075 7.94974 0.0225C7.94299 0.03 7.93549 0.03 7.93549 0.03L7.88974 0.0525C7.85974 0.06 7.84549 0.0675 7.82224 0.0825C7.79974 0.09 7.77799 0.09 7.76224 0.105L3.03724 2.9025C3.00724 2.9175 2.98474 2.9475 2.95474 2.97C2.92474 2.9925 2.90299 3.01575 2.87299 3.0375C2.82724 3.09 2.78974 3.15 2.75299 3.2175C2.74549 3.23325 2.73724 3.24 2.72974 3.255C2.69299 3.345 2.67724 3.435 2.67724 3.525C2.67724 3.5325 2.66974 3.54 2.66974 3.5475V5.0475C2.66974 5.46 3.00724 5.7975 3.41974 5.7975C3.84049 5.7975 4.16974 5.46 4.16974 5.0475V4.2975H7.39549V5.97L3.03724 8.5425C3.00724 8.565 2.98474 8.595 2.95474 8.6175C2.92474 8.64075 2.90299 8.655 2.87299 8.6775C2.82724 8.7375 2.78974 8.7975 2.75299 8.85825C2.74549 8.8725 2.73724 8.88825 2.72974 8.9025C2.69299 8.985 2.67724 9.07575 2.67724 9.165C2.67724 9.1725 2.66974 9.18 2.66974 9.1875V10.6875C2.66974 11.1 3.00724 11.4375 3.41974 11.4375C3.84049 11.4375 4.16974 11.1 4.16974 10.6875V9.9375H7.28299L4.20799 22.5H2.25049C1.83799 22.5 1.50049 22.8375 1.50049 23.25C1.50049 23.6625 1.83799 24 2.25049 24H21.0305C21.4497 24 21.7805 23.6625 21.7805 23.25C21.7805 22.8375 21.4497 22.5 21.0305 22.5Z" fill="black"/>
</svg>

<svg xmlns="http://www.w3.org/2000/svg" width="24" height="24" fill="none" viewBox="0 0 24 24"><path fill="currentColor" fill-rule="evenodd" d="m7.74 22.5 3.9-3.828 3.9 3.828zm13.29 0h-1.95L15.998 9.938h3.112v.75c0 .412.337.75.75.75.42 0 .75-.338.75-.75V9.165c0-.09-.022-.18-.052-.262-.008-.015-.023-.03-.03-.045a.8.8 0 0 0-.12-.18c-.023-.023-.046-.037-.075-.06-.03-.023-.052-.053-.09-.075l-4.35-2.573V4.298h3.217v.75c0 .412.337.75.75.75.42 0 .75-.338.75-.75V3.525a.9.9 0 0 0-.052-.27c-.008-.015-.023-.022-.03-.038a.6.6 0 0 0-.12-.18q-.033-.032-.075-.067c-.03-.023-.052-.053-.09-.068L15.525.105c-.023-.007-.039-.015-.06-.022q-.035-.021-.068-.03L15.352.03h-.014a.6.6 0 0 0-.196-.03H8.145a.8.8 0 0 0-.195.023C7.943.03 7.935.03 7.935.03L7.89.053a.2.2 0 0 0-.068.03C7.8.09 7.778.09 7.762.105L3.037 2.903c-.03.014-.052.044-.082.067-.03.022-.052.046-.082.067a1 1 0 0 0-.12.18c-.008.016-.016.023-.023.038a.7.7 0 0 0-.053.27c0 .008-.007.015-.007.022v1.5c0 .413.337.75.75.75.42 0 .75-.337.75-.75v-.75h3.225V5.97L3.037 8.543c-.03.022-.052.052-.082.075l-.082.06c-.046.06-.083.12-.12.18l-.023.044a.65.65 0 0 0-.053.263c0 .008-.007.015-.007.023v1.5c0 .412.337.75.75.75.42 0 .75-.338.75-.75v-.75h3.113L4.208 22.5H2.25a.75.75 0 0 0-.75.75c0 .413.338.75.75.75h18.78c.42 0 .75-.337.75-.75s-.33-.75-.75-.75" clip-rule="evenodd"/></svg>
